X:358
T:Five Hearts
C:Longman & Broderip: Playing cards, 1774
N:I have moved the bar lines to where you would expect them, and added chords from the bass part.
L:1/8
M:2/2
R:Reel
S:Colin Hume's website,  colinhume.com  - chords can also be printed below the stave.
Q:1/2=100
K:F
%%center Play A as introduction, then AABB repeatedly.
P:A
V:1
|: FFFF AAAA | cccc f4 | dgbd cfac | BegB A2G2 |\
FFFF AAAA | cccc f4 | agfa g2c2 | edc=B c4 :|
V:2 bass octave=-2
%%MIDI chordprog 46     % Orchestral Harp
% %MIDI chordprog 19     % Church Organ
%%MIDI gchord cccc
|: "F"f4 F4 | f4 F4 | "Gm"b2g2 "F"a2f2 | "C"g2e2 "F"f2c2 |\
"F"f4 F4 | f4 F4 | "F"f4 "C"e4 | "F"f2"G7"g2 "C"c4 :|
P:B
V:1
|: cccc eeee | gggg a4 | gabg a2gf | e2d2 ^c2BA |\
aaaa gggg | ffff e4 | AAAA GGGG | FFFF E4 |
V:2
|: "C"c'4 c4 | c'4 c4 | "A7"^c4 "Dm"d4 | "Gm"g4 "A7"a4 |\
"F"f4 "C"e4 | "Dm"d4 "A"a4 | "F"f4 "C"e4 | "Dm"d4 "A"A4 |
V:1
A^ceg f2ed | fed^c d4 || f2f2 c2BA | d2cB c4 | B2AG F2ba | gafg fedc |
V:2
"A"^c4 "Dm"d2f2 | "A7"g2a2 "Dm"d4 || "F"z4f4 | "Bb"b4 "F"a4 | "Gm"g2"C"c2 "Dm"d4 | "Gm"B2G2 "C"c4 |
V:1
FFFF AAAA | cccc f4 | dgbd cfac | BegB A2G2 |\
FFFF AAAA | cccc f4 | dcBd c2F2 | AGFE F4 :|
V:2
"F"f4 F4 | f4 F4 | "Gm"b2g2 "F"a2f2 | "C"g2e2 "F"f2c2 |\
"F"f4 F4 | f4 F4 | "Bb"B4 "F"A4 | "Bb"B2"C"c2 "F"F4 :|

